X:1
T:Henry, My Son
M:4/4
L:1/8
K:G
 B2| BA AG G4| d2 eB d4| B2 BA AG G2| AA AB| A4| c2 BA G- B3| d2 dc B- d3|\
 B2 BB B2 GA| B2 BA| G3 A3/2 B/2| c2 E4 F2| G6||
